src/assets/img/basket.svg

<svg width="38" height="38" viewBox="0 0 38 38" fill="none" xmlns="http://www.w3.org/2000/svg">
<g clip-path="url(#clip0)">
<path d="M21.6348 25.4445H19.7755V23.5466C19.7755 23.1204 19.4301 22.775 19.0039 22.775C18.5777 22.775 18.2323 23.1204 18.2323 23.5466V25.4445H16.3727C15.9465 25.4445 15.6011 25.7902 15.6011 26.2161C15.6011 26.6422 15.9465 26.9876 16.3727 26.9876H18.2323V28.8473C18.2323 29.2734 18.5777 29.6188 19.0039 29.6188C19.4301 29.6188 19.7755 29.2734 19.7755 28.8473V26.9876H21.6348C22.061 26.9876 22.4064 26.6422 22.4064 26.2161C22.4064 25.7902 22.061 25.4445 21.6348 25.4445Z" fill="#252525"/>
<mask id="path-2-outside-1" maskUnits="userSpaceOnUse" x="-1" y="2.20203" width="40" height="33" fill="black">
<rect fill="white" x="-1" y="2.20203" width="40" height="33"/>
<path d="M34.1499 11.1089H31.7424L24.3971 3.7633C23.6394 3.03332 22.4362 3.04568 21.693 3.79073C20.95 4.53578 20.9413 5.73895 21.6734 6.49485L26.2874 11.1089H11.7201L16.3341 6.49485C17.0852 5.73925 17.0852 4.5189 16.3341 3.7633C15.5776 3.01493 14.3594 3.01493 13.6029 3.7633L6.25758 11.1089H3.85787C1.7276 11.1095 0.000904191 12.8362 0 14.9668V15.314C0.00210977 17.2378 1.42018 18.8665 3.3256 19.1333L5.1617 31.5399C5.45285 33.4273 7.07165 34.8237 8.98099 34.8348H29.019C30.9295 34.8267 32.5498 33.4288 32.8383 31.5399L34.6744 19.1333C36.5786 18.8641 37.9955 17.2369 38 15.314V14.9668C38.0027 13.9442 37.5982 12.9625 36.8758 12.2386C36.1533 11.5146 35.1726 11.1083 34.1499 11.1089ZM22.7614 5.39928C22.6888 5.32785 22.6472 5.2308 22.6457 5.12923C22.6448 5.02675 22.6867 4.9288 22.7614 4.85918C22.9145 4.7124 23.1559 4.7124 23.3093 4.85918L29.5591 11.1089H28.471L22.7614 5.39928ZM14.6985 4.85918C14.8094 4.74947 14.9748 4.71662 15.1192 4.77539C15.2636 4.83416 15.3591 4.97341 15.3621 5.12923C15.363 5.2314 15.3212 5.32935 15.2464 5.39928L9.53676 11.1089H8.44873L14.6985 4.85918ZM31.3105 31.3163C31.1363 32.4487 30.1646 33.2862 29.019 33.2917H8.98883C7.84322 33.2862 6.87152 32.4487 6.69731 31.3163L4.89949 19.1719H33.1159L31.3105 31.3163ZM36.4647 15.314C36.4607 16.5907 35.4267 17.6248 34.1499 17.6287H3.85787C2.58115 17.6248 1.54676 16.5907 1.54315 15.314V14.9668C1.54676 13.6898 2.58115 12.6557 3.85787 12.6521H34.1421C35.4188 12.6557 36.4532 13.6898 36.4568 14.9668L36.4647 15.314Z"/>
</mask>
<path d="M34.1499 11.1089H31.7424L24.3971 3.7633C23.6394 3.03332 22.4362 3.04568 21.693 3.79073C20.95 4.53578 20.9413 5.73895 21.6734 6.49485L26.2874 11.1089H11.7201L16.3341 6.49485C17.0852 5.73925 17.0852 4.5189 16.3341 3.7633C15.5776 3.01493 14.3594 3.01493 13.6029 3.7633L6.25758 11.1089H3.85787C1.7276 11.1095 0.000904191 12.8362 0 14.9668V15.314C0.00210977 17.2378 1.42018 18.8665 3.3256 19.1333L5.1617 31.5399C5.45285 33.4273 7.07165 34.8237 8.98099 34.8348H29.019C30.9295 34.8267 32.5498 33.4288 32.8383 31.5399L34.6744 19.1333C36.5786 18.8641 37.9955 17.2369 38 15.314V14.9668C38.0027 13.9442 37.5982 12.9625 36.8758 12.2386C36.1533 11.5146 35.1726 11.1083 34.1499 11.1089ZM22.7614 5.39928C22.6888 5.32785 22.6472 5.2308 22.6457 5.12923C22.6448 5.02675 22.6867 4.9288 22.7614 4.85918C22.9145 4.7124 23.1559 4.7124 23.3093 4.85918L29.5591 11.1089H28.471L22.7614 5.39928ZM14.6985 4.85918C14.8094 4.74947 14.9748 4.71662 15.1192 4.77539C15.2636 4.83416 15.3591 4.97341 15.3621 5.12923C15.363 5.2314 15.3212 5.32935 15.2464 5.39928L9.53676 11.1089H8.44873L14.6985 4.85918ZM31.3105 31.3163C31.1363 32.4487 30.1646 33.2862 29.019 33.2917H8.98883C7.84322 33.2862 6.87152 32.4487 6.69731 31.3163L4.89949 19.1719H33.1159L31.3105 31.3163ZM36.4647 15.314C36.4607 16.5907 35.4267 17.6248 34.1499 17.6287H3.85787C2.58115 17.6248 1.54676 16.5907 1.54315 15.314V14.9668C1.54676 13.6898 2.58115 12.6557 3.85787 12.6521H34.1421C35.4188 12.6557 36.4532 13.6898 36.4568 14.9668L36.4647 15.314Z" fill="#252525"/>
<path d="M34.1499 11.1089H31.7424L24.3971 3.7633C23.6394 3.03332 22.4362 3.04568 21.693 3.79073C20.95 4.53578 20.9413 5.73895 21.6734 6.49485L26.2874 11.1089H11.7201L16.3341 6.49485C17.0852 5.73925 17.0852 4.5189 16.3341 3.7633C15.5776 3.01493 14.3594 3.01493 13.6029 3.7633L6.25758 11.1089H3.85787C1.7276 11.1095 0.000904191 12.8362 0 14.9668V15.314C0.00210977 17.2378 1.42018 18.8665 3.3256 19.1333L5.1617 31.5399C5.45285 33.4273 7.07165 34.8237 8.98099 34.8348H29.019C30.9295 34.8267 32.5498 33.4288 32.8383 31.5399L34.6744 19.1333C36.5786 18.8641 37.9955 17.2369 38 15.314V14.9668C38.0027 13.9442 37.5982 12.9625 36.8758 12.2386C36.1533 11.5146 35.1726 11.1083 34.1499 11.1089ZM22.7614 5.39928C22.6888 5.32785 22.6472 5.2308 22.6457 5.12923C22.6448 5.02675 22.6867 4.9288 22.7614 4.85918C22.9145 4.7124 23.1559 4.7124 23.3093 4.85918L29.5591 11.1089H28.471L22.7614 5.39928ZM14.6985 4.85918C14.8094 4.74947 14.9748 4.71662 15.1192 4.77539C15.2636 4.83416 15.3591 4.97341 15.3621 5.12923C15.363 5.2314 15.3212 5.32935 15.2464 5.39928L9.53676 11.1089H8.44873L14.6985 4.85918ZM31.3105 31.3163C31.1363 32.4487 30.1646 33.2862 29.019 33.2917H8.98883C7.84322 33.2862 6.87152 32.4487 6.69731 31.3163L4.89949 19.1719H33.1159L31.3105 31.3163ZM36.4647 15.314C36.4607 16.5907 35.4267 17.6248 34.1499 17.6287H3.85787C2.58115 17.6248 1.54676 16.5907 1.54315 15.314V14.9668C1.54676 13.6898 2.58115 12.6557 3.85787 12.6521H34.1421C35.4188 12.6557 36.4532 13.6898 36.4568 14.9668L36.4647 15.314Z" stroke="#252525" stroke-width="0.4" mask="url(#path-2-outside-1)"/>
</g>
<defs>
<clipPath id="clip0">
<rect width="38" height="38" fill="white"/>
</clipPath>
</defs>
</svg>

<svg xmlns="http://www.w3.org/2000/svg" width="38" height="38" fill="none"><g clip-path="url(#a)"><path fill="#252525" d="M21.6 25.4h-1.8v-1.9a.8.8 0 1 0-1.6 0v2h-1.8a.8.8 0 0 0 0 1.5h1.8v1.8a.8.8 0 0 0 1.6 0V27h1.8a.8.8 0 1 0 0-1.6Z"/><path fill="#252525" d="M34.1 11.1h-2.4l-7.3-7.3a2 2 0 0 0-2.7 2.7l4.6 4.6H11.7l4.6-4.6c.8-.8.8-2 0-2.7a2 2 0 0 0-2.7 0L6.3 11H3.9A3.9 3.9 0 0 0 0 15v.3c0 2 1.4 3.6 3.3 3.8l1.9 12.4c.3 2 1.9 3.3 3.8 3.3h20c2 0 3.5-1.4 3.8-3.3l1.9-12.4a3.9 3.9 0 0 0 3.3-3.8V15a3.8 3.8 0 0 0-3.9-3.9ZM22.8 5.4l-.2-.3s0-.2.2-.2c.1-.2.4-.2.5 0l6.3 6.2h-1.1l-5.7-5.7Zm-8.1-.5a.4.4 0 0 1 .7.2c0 .1 0 .2-.2.3l-5.7 5.7h-1L14.6 5Zm16.6 26.4c-.2 1.1-1.1 2-2.3 2H9c-1.2 0-2.1-.9-2.3-2L4.9 19.2h28.2l-1.8 12.1Zm5.2-16c0 1.3-1 2.3-2.4 2.3H4c-1.3 0-2.4-1-2.4-2.3V15c0-1.3 1-2.3 2.4-2.3H34c1.3 0 2.4 1 2.4 2.3v.3Z"/><path stroke="#252525" stroke-width=".4" d="M34.1 11.1h-2.4l-7.3-7.3a2 2 0 0 0-2.7 2.7l4.6 4.6H11.7l4.6-4.6c.8-.8.8-2 0-2.7a2 2 0 0 0-2.7 0L6.3 11H3.9A3.9 3.9 0 0 0 0 15v.3c0 2 1.4 3.6 3.3 3.8l1.9 12.4c.3 2 1.9 3.3 3.8 3.3h20c2 0 3.5-1.4 3.8-3.3l1.9-12.4a3.9 3.9 0 0 0 3.3-3.8V15a3.8 3.8 0 0 0-3.9-3.9ZM22.8 5.4l-.2-.3s0-.2.2-.2c.1-.2.4-.2.5 0l6.3 6.2h-1.1l-5.7-5.7Zm-8.1-.5a.4.4 0 0 1 .7.2c0 .1 0 .2-.2.3l-5.7 5.7h-1L14.6 5Zm16.6 26.4c-.2 1.1-1.1 2-2.3 2H9c-1.2 0-2.1-.9-2.3-2L4.9 19.2h28.2l-1.8 12.1Zm5.2-16c0 1.3-1 2.3-2.4 2.3H4c-1.3 0-2.4-1-2.4-2.3V15c0-1.3 1-2.3 2.4-2.3H34c1.3 0 2.4 1 2.4 2.3v.3Z"/></g><defs><clipPath id="a"><path fill="#fff" d="M0 0h38v38H0z"/></clipPath></defs></svg>
